X:1
T:The Crowning Day
T:James McGranahan
T:The Crowning Day
T:Public Domain
T:Public Domain
T:Public Domain
C:James McGranahan
Z:Public Domain
%%score ( 1 2 ) ( 3 4 )
L:1/8
M:4/4
K:Ab
V:1 treble 
V:2 treble 
V:3 bass 
V:4 bass 
V:1
 [CE] | [CE][CA][CA][DB] [Ec]2 [DB][CA] | [DF][DA] [DA]>[DF] [CE]3 [CE]/[CE]/ | %3
w: 1.~Our|Lord is now re- ject- ed, And|by the world dis- owned, By the|
w: 2.~The|heav’ns shall glow with splen- dor, But|bright- er far than they Th- e|
w: 3.~Our|pain shall then be o- ver, We’ll|sit and sigh no more, B- e-|
w: 4.~Let|all that look for, hast- en The|com- ing joy- ful day, B- y|
 [CE][CA][EA][EB] [Ec]2 [Ec][Ad] | [Ae][Ac][Ac]A [GB]3 [GB] | [GB][Bd][Ac][GB] [FA]2 [FA][=EG] | %6
w: ma- ny still ne- glect- ed, And|by the few en- throned, But|He’ll come in glo- ry, The hour|
w: saints shall shine in glo- ry, As|Christ shall them ar- ray, The|ty of the Sav- ior, Shall daz-|
w: hind us all of sor- row, And|naught but joy be- fore, A|in our Re- deem- er, As we|
w: ear- nest con- se- cra- tion, To|walk the nar- row way, By|’ring in the lost ones, For whom|
 F[FA][EG][DF] [CE]2 [EA][EB] | [Ac][Ae][Ad][Af] [Ae]<[Ac] [GB]>[EA] | [EA]6 || %9
w: is draw- ing nigh, For the crown-|day is com- ing by and by. *||
w: zle ev- ’ry eye, For the crown-|day is com- ing by and by. Oh,|the|
w: to Him are nigh, For the crown-|day that’s com- ing by and by. *||
w: our Lord did die, For the crown-|day that’s com- ing by and by. *||
"^Refrain" [EA][EA] | [FA][Fd][Fd][Fd] [Fd]/ [Af]3 [Af]/ | [Af]<[Ae] [Ae]>[Ac] [Ae]2 [Ac][GB] | %12
w: |||
w: crown- ing|day is com- ing, Is com- ing|by and by, When our Lord shall|
w: |||
w: |||
 [FA]>[FA] [FA][FA] [FA]2 [=EG][FA] | [GB]>[^F=A] [GB][Ac] [GB]2 [Ge][Bd] | %14
w: ||
w: come “in pow- er,” And “glo- ry”|from on high. Oh, the glo- rious|
w: ||
w: ||
 [Ac]>[Ad] [Ae][Ec] [EA]2 [EA][=EG] | [DF]<[FA] [FA]>[DF] [CE]2 [EA][EB] | %16
w: ||
w: sight will glad- den, Each wait- ing,|watch- ful eye, In the crown- ing|
w: ||
w: ||
 [Ac][Ae][Ad][Af] [Ae]<[Ac] [GB]>[EA] | [EA]6 |] %18
w: ||
w: day that’s com- ing by and by. *||
w: ||
w: ||
V:2
 x | x8 | x8 | x8 | x3 A x4 | x8 | F x7 | x8 | x6 || x2 | x8 | x8 | x8 | x8 | x8 | x8 | x8 | x6 |] %18
w: ||||soon||ing||||||||||||
w: ||||beau-||ing||||||||||||
w: ||||joy||ing||||||||||||
w: ||||gath-||ing||||||||||||
V:3
 [A,,A,] | [A,,A,][A,,E,][A,,E,][A,,A,] [A,,A,]2 [A,,A,][A,,A,] | %2
 [D,A,][D,F,] [D,F,]>[D,A,] [A,,A,]3 [A,,A,]/[A,,A,]/ | [A,,A,][A,,E,][C,A,][E,G,] A,2 A,[A,B,] | %4
 [A,C][A,E][A,E][C,E] [E,E]3 [E,E] | [E,E][E,E][E,E][E,D] [F,C]2 [F,C][C,B,] | %6
 [D,A,][D,D][D,D][D,A,] [A,,A,]2 [A,C][A,D] | [A,E][A,C][D,F][D,D] [E,C]<[E,E] [E,D]>[E,C] | %8
 [A,,A,C]6 || [A,C][A,C] | [D,D][D,A,][D,A,][D,A,] [D,A,]/ [D,D]3 [D,D]/ | %11
 [A,D]<[A,C] [A,C]>[A,E] [A,C]2 [A,E][E,D] | [F,C]>[F,C] [F,C][F,C] [F,C]2 [C,C][F,C] | %13
 [E,E]>[E,E] [E,E][E,E] [E,E]2 [E,B,][E,E] | [A,E]>[A,D] [A,C]A, [A,C]2 [A,C][C,B,] | %15
 [D,A,]<[D,D] [D,D]>[D,A,] [A,,A,]2 [A,C][A,D] | [A,E][A,C][D,F][D,D] [E,C]<[E,E] [E,D]>[E,C] | %17
 [A,,C]6 |] %18
V:4
 x | x8 | x8 | x4 A,2 A, x | x8 | x8 | x8 | x8 | x6 || x2 | x8 | x8 | x8 | x8 | x3 A, x4 | x8 | %16
 x8 | x6 |] %18

